assets/icons/qvision/closed_caption.svg

<svg xmlns="http://www.w3.org/2000/svg" height="24" viewBox="0 0 24 24" width="24"><path d="M0 0h24v24H0z" fill="none"/><path d="M19 4H5c-1.11 0-2 .9-2 2v12c0 1.1.89 2 2 2h14c1.1 0 2-.9 2-2V6c0-1.1-.9-2-2-2zm-8 7H9.5v-.5h-2v3h2V13H11v1c0 .55-.45 1-1 1H7c-.55 0-1-.45-1-1v-4c0-.55.45-1 1-1h3c.55 0 1 .45 1 1v1zm7 0h-1.5v-.5h-2v3h2V13H18v1c0 .55-.45 1-1 1h-3c-.55 0-1-.45-1-1v-4c0-.55.45-1 1-1h3c.55 0 1 .45 1 1v1z"/></svg>

<svg width="24" height="24" viewBox="0 0 24 24" fill="none" xmlns="http://www.w3.org/2000/svg">
<g clip-path="url(#clip0_147_1394)">
<path d="M19 4H5C3.89 4 3 4.9 3 6V18C3 19.1 3.89 20 5 20H19C20.1 20 21 19.1 21 18V6C21 4.9 20.1 4 19 4ZM11 11H9.5V10.5H7.5V13.5H9.5V13H11V14C11 14.55 10.55 15 10 15H7C6.45 15 6 14.55 6 14V10C6 9.45 6.45 9 7 9H10C10.55 9 11 9.45 11 10V11ZM18 11H16.5V10.5H14.5V13.5H16.5V13H18V14C18 14.55 17.55 15 17 15H14C13.45 15 13 14.55 13 14V10C13 9.45 13.45 9 14 9H17C17.55 9 18 9.45 18 10V11Z" fill="#323232"/>
</g>
<defs>
<clipPath id="clip0_147_1394">
<rect width="24" height="24" fill="white"/>
</clipPath>
</defs>
</svg>
